findly-builder/apps/searchassist/src/assets/images/icons/selectevent.svg

<svg width="40" height="40" viewBox="0 0 40 40" fill="none" xmlns="http://www.w3.org/2000/svg">
<path d="M36.5625 15H34.375C33.6875 15 33.125 14.4375 33.125 13.75C33.125 13.0625 33.6875 12.5 34.3744 12.5H37.3938C38.4094 12.5 39.3194 11.7394 39.3725 10.7256C39.3744 10.6919 39.375 10.6581 39.375 10.625C39.3744 9.59 38.535 8.75 37.5 8.75H34.7769C33.9594 8.75 33.215 8.1625 33.1331 7.34875C33.1275 7.29375 33.125 7.23937 33.125 7.18563C33.1263 6.32375 33.825 5.625 34.6875 5.625H34.8938C35.9094 5.625 36.8194 4.86437 36.8725 3.85062C36.8744 3.81687 36.875 3.78313 36.875 3.75C36.875 2.715 36.0356 1.875 35 1.875H25.0669H11.875H3.85625C2.84063 1.875 1.93062 2.63563 1.8775 3.64938C1.87563 3.68313 1.875 3.71687 1.875 3.75C1.875 4.785 2.71438 5.625 3.75 5.625H3.97312C4.79063 5.625 5.535 6.2125 5.61688 7.02625C5.6225 7.08125 5.625 7.13563 5.625 7.18937C5.62437 8.05125 4.925 8.75 4.0625 8.75H1.98125C0.965625 8.75 0.055625 9.51063 0.0025 10.5244C0.000625 10.5581 0 10.5919 0 10.625C0 11.66 0.839375 12.5 1.875 12.5H5.5575C6.18062 12.5 6.7575 12.9256 6.8575 13.54C6.86938 13.6106 6.875 13.68 6.875 13.7481C6.87625 14.4394 6.31625 15 5.625 15H2.8125C1.26562 15 0 16.2656 0 17.8125C0 19.3594 1.26562 20.625 2.8125 20.625H4.59938C5.41625 20.6256 6.16062 21.2131 6.2425 22.0263C6.2475 22.0813 6.25 22.1356 6.25 22.1894C6.24937 23.0512 5.55 23.75 4.6875 23.75H4.48125C3.46563 23.75 2.55563 24.5106 2.5025 25.5244C2.50063 25.5581 2.5 25.5919 2.5 25.625C2.5 26.66 3.33938 27.5 4.375 27.5H10.0319C10.0113 27.6012 10 27.7062 10 27.8144C10 27.8712 10.0031 27.9287 10.0094 27.9869C10.0981 28.795 10.8444 29.375 11.6581 29.375H27.7163C28.5306 29.375 29.2763 28.795 29.365 27.9862C29.3719 27.9281 29.375 27.8712 29.375 27.8144C29.375 27.7069 29.3638 27.6019 29.3431 27.5H35.5194C36.535 27.5 37.445 26.7394 37.4981 25.7256C37.4994 25.6919 37.5 25.6581 37.5 25.625C37.4994 24.59 36.66 23.75 35.625 23.75H28.75V20.5931C28.8538 20.605 28.9556 20.625 29.0625 20.625H36.5625C38.1094 20.625 39.375 19.3594 39.375 17.8125C39.375 16.2656 38.1094 15 36.5625 15Z" fill="url(#paint0_radial)"/>
<path d="M29.375 33.75H10.625C9.59375 33.75 8.75 32.9062 8.75 31.875C8.75 30.8438 9.59375 30 10.625 30H29.375C30.4062 30 31.25 30.8438 31.25 31.875C31.25 32.9062 30.4062 33.75 29.375 33.75Z" fill="#1261AB"/>
<path d="M29.9875 4.63399H27.5L25.6512 4.72712C25.3412 4.26212 24.6581 4.26212 24.3481 4.72712L22.5 4.63399L20.6512 4.72712C20.3412 4.26212 19.6581 4.26212 19.3481 4.72712L17.5 4.63399L15.6512 4.72712C15.3412 4.26212 14.6581 4.26212 14.3481 4.72712L12.5 4.63399H10.0125C9.585 4.11962 8.75 4.42274 8.75 5.09274V7.50024V31.8752H31.25V7.50024V5.09274C31.25 4.42274 30.415 4.11962 29.9875 4.63399Z" fill="url(#paint1_linear)"/>
<path d="M20.9375 20.625H14.6875C14.17 20.625 13.75 20.205 13.75 19.6875C13.75 19.17 14.17 18.75 14.6875 18.75H20.9375C21.455 18.75 21.875 19.17 21.875 19.6875C21.875 20.205 21.455 20.625 20.9375 20.625ZM26.25 11.875V10C26.25 9.4825 25.83 9.0625 25.3125 9.0625H14.6875C14.17 9.0625 13.75 9.4825 13.75 10V11.875C13.75 12.3925 14.17 12.8125 14.6875 12.8125H25.3125C25.83 12.8125 26.25 12.3925 26.25 11.875ZM21.875 23.4375C21.875 22.92 21.455 22.5 20.9375 22.5H14.6875C14.17 22.5 13.75 22.92 13.75 23.4375C13.75 23.955 14.17 24.375 14.6875 24.375H20.9375C21.455 24.375 21.875 23.955 21.875 23.4375ZM26.25 19.6875C26.25 19.17 25.83 18.75 25.3125 18.75H24.6875C24.17 18.75 23.75 19.17 23.75 19.6875C23.75 20.205 24.17 20.625 24.6875 20.625H25.3125C25.83 20.625 26.25 20.205 26.25 19.6875ZM26.25 23.4375C26.25 22.92 25.83 22.5 25.3125 22.5H24.6875C24.17 22.5 23.75 22.92 23.75 23.4375C23.75 23.955 24.17 24.375 24.6875 24.375H25.3125C25.83 24.375 26.25 23.955 26.25 23.4375ZM26.25 27.1875C26.25 26.67 25.83 26.25 25.3125 26.25H24.6875C24.17 26.25 23.75 26.67 23.75 27.1875C23.75 27.705 24.17 28.125 24.6875 28.125H25.3125C25.83 28.125 26.25 27.705 26.25 27.1875Z" fill="white"/>
<path d="M14.6875 16.875H20.9375C21.455 16.875 21.875 16.455 21.875 15.9375C21.875 15.42 21.455 15 20.9375 15H14.6875C14.17 15 13.75 15.42 13.75 15.9375C13.75 16.455 14.17 16.875 14.6875 16.875Z" fill="white"/>
<path d="M25.3125 15C25.83 15 26.25 15.42 26.25 15.9375C26.25 16.455 25.83 16.875 25.3125 16.875H24.6875C24.17 16.875 23.75 16.455 23.75 15.9375C23.75 15.42 24.17 15 24.6875 15H25.3125Z" fill="white"/>
<defs>
<radialGradient id="paint0_radial" cx="0" cy="0" r="1" gradientUnits="userSpaceOnUse" gradientTransform="translate(19.6875 15.625) scale(19.0726 14.2236)">
<stop stop-color="#AFEEFF"/>
<stop offset="0.193" stop-color="#BBF1FF"/>
<stop offset="0.703" stop-color="#D7F8FF"/>
<stop offset="1" stop-color="#E1FAFF"/>
</radialGradient>
<linearGradient id="paint1_linear" x1="20" y1="31.8752" x2="20" y2="4.37524" gradientUnits="userSpaceOnUse">
<stop stop-color="#2287E7"/>
<stop offset="1" stop-color="#88E4FD"/>
</linearGradient>
</defs>
</svg>

<svg width="40" height="40" fill="none" xmlns="http://www.w3.org/2000/svg"><path d="M36.563 15h-2.188c-.688 0-1.25-.563-1.25-1.25 0-.688.563-1.25 1.25-1.25h3.019c1.015 0 1.925-.76 1.979-1.774l.002-.101c0-1.035-.84-1.875-1.875-1.875h-2.723c-.818 0-1.562-.588-1.644-1.401a1.563 1.563 0 0 1 1.554-1.724h.207c1.015 0 1.925-.76 1.979-1.774l.002-.101c0-1.035-.84-1.875-1.875-1.875H3.856c-1.015 0-1.925.76-1.978 1.774A1.875 1.875 0 0 0 3.75 5.625h.222c.818 0 1.562.588 1.644 1.401A1.562 1.562 0 0 1 4.063 8.75H1.98c-1.015 0-1.925.76-1.979 1.774A1.875 1.875 0 0 0 1.875 12.5h3.683c.623 0 1.2.426 1.3 1.04A1.252 1.252 0 0 1 5.624 15H2.812A2.82 2.82 0 0 0 0 17.813a2.82 2.82 0 0 0 2.813 2.812h1.786c.817 0 1.562.588 1.643 1.401a1.562 1.562 0 0 1-1.555 1.724h-.206c-1.015 0-1.925.76-1.978 1.774A1.875 1.875 0 0 0 4.375 27.5h5.656a1.574 1.574 0 0 0-.023.487c.09.808.835 1.388 1.65 1.388h16.057c.815 0 1.56-.58 1.649-1.389a1.577 1.577 0 0 0-.022-.486h6.176c1.016 0 1.926-.76 1.98-1.774a1.876 1.876 0 0 0-1.873-1.976h-6.876v-3.157c.104.012.206.032.313.032h7.5a2.82 2.82 0 0 0 2.812-2.813A2.82 2.82 0 0 0 36.562 15Z" fill="url(#a)"/><path d="M29.375 33.75h-18.75a1.88 1.88 0 0 1-1.875-1.875A1.88 1.88 0 0 1 10.625 30h18.75a1.88 1.88 0 0 1 1.875 1.875 1.88 1.88 0 0 1-1.875 1.875Z" fill="#1261AB"/><path d="M29.988 4.634H27.5l-1.849.093a.783.783 0 0 0-1.303 0L22.5 4.634l-1.849.093a.783.783 0 0 0-1.303 0L17.5 4.634l-1.849.093a.783.783 0 0 0-1.303 0L12.5 4.634h-2.488c-.427-.514-1.262-.211-1.262.459v26.782h22.5V5.093c0-.67-.835-.973-1.262-.459Z" fill="url(#b)"/><path d="M20.938 20.625h-6.25a.938.938 0 0 1 0-1.875h6.25a.938.938 0 0 1 0 1.875Zm5.312-8.75V10a.938.938 0 0 0-.938-.938H14.688a.938.938 0 0 0-.937.938v1.875c0 .518.42.938.938.938h10.624c.518 0 .938-.42.938-.938Zm-4.375 11.563a.938.938 0 0 0-.938-.938h-6.25a.938.938 0 0 0 0 1.875h6.25c.518 0 .938-.42.938-.938Zm4.375-3.75a.938.938 0 0 0-.938-.938h-.625a.938.938 0 0 0 0 1.875h.625c.518 0 .938-.42.938-.938Zm0 3.75a.938.938 0 0 0-.938-.938h-.625a.938.938 0 0 0 0 1.875h.625c.518 0 .938-.42.938-.938Zm0 3.75a.938.938 0 0 0-.938-.938h-.625a.938.938 0 0 0 0 1.875h.625c.518 0 .938-.42.938-.938ZM14.688 16.875h6.25a.938.938 0 0 0 0-1.875h-6.25a.938.938 0 0 0 0 1.875ZM25.313 15a.938.938 0 0 1 0 1.875h-.625a.938.938 0 0 1 0-1.875h.625Z" fill="#fff"/><defs><radialGradient id="a" cx="0" cy="0" r="1" gradientUnits="userSpaceOnUse" gradientTransform="matrix(19.0726 0 0 14.2236 19.688 15.625)"><stop stop-color="#AFEEFF"/><stop offset=".193" stop-color="#BBF1FF"/><stop offset=".703" stop-color="#D7F8FF"/><stop offset="1" stop-color="#E1FAFF"/></radialGradient><linearGradient id="b" x1="20" y1="31.875" x2="20" y2="4.375" gradientUnits="userSpaceOnUse"><stop stop-color="#2287E7"/><stop offset="1" stop-color="#88E4FD"/></linearGradient></defs></svg>
